Yaru++/mimetypes/16/application-illustrator.svg

<svg height="16" width="16" xmlns="http://www.w3.org/2000/svg">
  <path d="m14.17405 1.7403566c-.181064.0000354-.365308.024803-.530388.06626-.159768.041456-.291898.109134-.414365.2154334-.117142.1006301-.212528.2427168-.281765.4143549-.06923.1654727-.09946.3755912-.09946.6298238-.000003.2483862.03012.4583984.09946.6298592.06923.1714965.164623.3079142.281765.4143553.122492.1006295.254622.1683068.414365.2154331.165083.041456.349335.066263.530388.066263.181063 0 .354048-.024806.513812-.066263.159768-.0474846.297213-.1148038.414366-.2154333.122492-.1062995.212527-.2427172.281764-.4143553.07455-.1714963.116008-.381473.116008-.6298592 0-.2540554-.041456-.4642448-.116008-.6298238-.069235-.1714962-.159272-.3139374-.281764-.4143548-.117142-.1062994-.254623-.1739767-.414366-.2154334-.159768-.0414567-.332753-.0662599-.513812-.0662599zm-9.7127189 1.0607613-3.9613311 12.1989141h2.6187878l1.060772-3.182319h3.8287368l.9944767 3.182319h2.6022117l-3.9779063-12.1989141zm1.5911598 1.6740376c.027638.1945278.082382.4349416.1491735.7127027.066756.2777947.1431498.5675671.2154688.8453272.077882.2721266.1487128.5180679.2154688.745832.066756.2278354.1157955.380694.1491734.480686l.7790079 2.4364528h-2.98343l.7790079-2.4364528c.016654-.061303.0495-.1541346.082878-.2816938.0389409-.1275593.0715041-.2643304.116008-.4309375.0445041-.1665359.0991064-.3415749.1491735-.530398.0500672-.1888587.0880866-.3801972.1325907-.5635284.0500672-.1888587.0992128-.3637214.1325907-.5303989.038941-.1665359.0606264-.3252755.0828779-.44752zm6.7790151.977919v9.5469575h2.65194v-9.5469575z" fill="#808080"/>
</svg>

<svg xmlns="http://www.w3.org/2000/svg" width="16" height="16" version="1.1">
 <path style="fill:#808080" d="m 14.17405,1.7403566 c -0.181064,3.54e-5 -0.365308,0.024803 -0.530388,0.06626 -0.159768,0.041456 -0.291898,0.109134 -0.414365,0.2154334 -0.117142,0.1006301 -0.212528,0.2427168 -0.281765,0.4143549 -0.06923,0.1654727 -0.09946,0.3755912 -0.09946,0.6298238 -3e-6,0.2483862 0.03012,0.4583984 0.09946,0.6298592 0.06923,0.1714965 0.164623,0.3079142 0.281765,0.4143553 0.122492,0.1006295 0.254622,0.1683068 0.414365,0.2154331 0.165083,0.041456 0.349335,0.066263 0.530388,0.066263 0.181063,0 0.354048,-0.024806 0.513812,-0.066263 C 14.84763,4.2783917 14.985075,4.2110725 15.102228,4.110443 15.22472,4.0041435 15.314755,3.8677258 15.383992,3.6960877 15.458542,3.5245914 15.5,3.3146147 15.5,3.0662285 15.5,2.8121731 15.458544,2.6019837 15.383992,2.4364047 15.314757,2.2649085 15.22472,2.1224673 15.102228,2.0220499 14.985086,1.9157505 14.847605,1.8480732 14.687862,1.8066165 14.528094,1.7651598 14.355109,1.7403566 14.17405,1.7403566 Z M 4.4613311,2.8011179 0.5,15.000032 h 2.6187878 l 1.060772,-3.182319 h 3.8287368 l 0.9944767,3.182319 H 11.604985 L 7.6270787,2.8011179 Z m 1.5911598,1.6740376 c 0.027638,0.1945278 0.082382,0.4349416 0.1491735,0.7127027 0.066756,0.2777947 0.1431498,0.5675671 0.2154688,0.8453272 0.077882,0.2721266 0.1487128,0.5180679 0.2154688,0.745832 0.066756,0.2278354 0.1157955,0.380694 0.1491734,0.480686 l 0.7790079,2.4364528 h -2.98343 L 5.3563612,7.2597034 c 0.016654,-0.061303 0.0495,-0.1541346 0.082878,-0.2816938 C 5.4781801,6.8504503 5.5107433,6.7136792 5.5552472,6.5470721 5.5997513,6.3805362 5.6543536,6.2054972 5.7044207,6.0166741 5.7544879,5.8278154 5.7925073,5.6364769 5.8370114,5.4531457 5.8870786,5.264287 5.9362242,5.0894243 5.9696021,4.9227468 6.0085431,4.7562109 6.0302285,4.5974713 6.05248,4.4752268 Z m 6.7790151,0.977919 v 9.5469575 h 2.65194 V 5.4530745 Z"/>
</svg>
